svg/outlined/Grid2OutlinedIcon.svg

<svg width="24" height="24" viewBox="0 0 24 24" fill="#cacaca" xmlns="http://www.w3.org/2000/svg">
<path d="M9 19V21H5V19H9ZM19 19V21H15V19H19ZM19 15H15V21C13.8954 21 13 20.1046 13 19V15C13 13.8954 13.8954 13 15 13H19C20.1046 13 21 13.8954 21 15V19C21 20.1046 20.1046 21 19 21V15ZM9 15H5V21C3.89543 21 3 20.1046 3 19V15C3 13.8954 3.89543 13 5 13H9C10.1046 13 11 13.8954 11 15V19C11 20.1046 10.1046 21 9 21V15ZM9 9V11H5V9H9ZM19 9V11H15V9H19ZM19 5H15V11C13.8954 11 13 10.1046 13 9V5C13 3.89543 13.8954 3 15 3H19C20.1046 3 21 3.89543 21 5V9C21 10.1046 20.1046 11 19 11V5ZM9 5H5V11C3.89543 11 3 10.1046 3 9V5C3 3.89543 3.89543 3 5 3H9C10.1046 3 11 3.89543 11 5V9C11 10.1046 10.1046 11 9 11V5Z"/>
</svg>

<svg width="24" height="24" fill="#cacaca" xmlns="http://www.w3.org/2000/svg"><path d="M9 19v2H5v-2h4zm10 0v2h-4v-2h4zm0-4h-4v6a2 2 0 01-2-2v-4a2 2 0 012-2h4a2 2 0 012 2v4a2 2 0 01-2 2v-6zM9 15H5v6a2 2 0 01-2-2v-4a2 2 0 012-2h4a2 2 0 012 2v4a2 2 0 01-2 2v-6zm0-6v2H5V9h4zm10 0v2h-4V9h4zm0-4h-4v6a2 2 0 01-2-2V5a2 2 0 012-2h4a2 2 0 012 2v4a2 2 0 01-2 2V5zM9 5H5v6a2 2 0 01-2-2V5a2 2 0 012-2h4a2 2 0 012 2v4a2 2 0 01-2 2V5z"/></svg>
